app/assets/images/icon-plus.svg

<?xml version="1.0" encoding="UTF-8"?>
<svg width="19px" height="19px" viewBox="0 0 19 19" version="1.1" xmlns="http://www.w3.org/2000/svg" xmlns:xlink="http://www.w3.org/1999/xlink">
<defs>
  <path d="M10.3189655,8.7447318 L13.822318,8.7447318 L13.822318,10.5464559 L10.3189655,10.5464559 L10.3189655,14.0498084 L8.51724138,14.0498084 L8.51724138,10.5464559 L5.01388889,10.5464559 L5.01388889,8.7447318 L8.51724138,8.7447318 L8.51724138,5.24137931 L10.3189655,5.24137931 L10.3189655,8.7447318 Z M9.5,19 C4.25329488,19 0,14.7467051 0,9.5 C0,4.25329488 4.25329488,0 9.5,0 C14.7467051,0 19,4.25329488 19,9.5 C19,14.7467051 14.7467051,19 9.5,19 Z M9.55533929,17.6650264 C14.0341958,17.6650264 17.6650264,14.0341958 17.6650264,9.55533929 C17.6650264,5.07648277 14.0341958,1.44565217 9.55533929,1.44565217 C5.07648277,1.44565217 1.44565217,5.07648277 1.44565217,9.55533929 C1.44565217,14.0341958 5.07648277,17.6650264 9.55533929,17.6650264 Z" id="path-1"></path>
</defs>
<g id="Symbols" stroke="none" stroke-width="1" fill="none" fill-rule="evenodd">
  <g id="Icon/Add" transform="translate(-6.000000, -6.000000)">
    <g id="Icon" transform="translate(6.000000, 6.000000)">
      <mask id="mask-2" fill="white">
        <use xlink:href="#path-1"></use>
      </mask>
      <use id="Mask" fill="#2d60e5" fill-rule="nonzero" xlink:href="#path-1"></use>
      <g id="Colors/Base/Blue50" mask="url(#mask-2)" fill="#3c6df0">
        <g transform="translate(-3.275862, -3.931034)" id="Rectangle-6-Copy">
          <rect x="0" y="0" width="25" height="25"></rect>
        </g>
      </g>
    </g>
  </g>
</g>
</svg>

<svg width="19" height="19" xmlns="http://www.w3.org/2000/svg" xmlns:xlink="http://www.w3.org/1999/xlink"><defs><path d="M10.319 8.745h3.503v1.801H10.32v3.504H8.517v-3.504H5.014V8.745h3.503V5.24h1.802v3.504zM9.5 19a9.5 9.5 0 1 1 0-19 9.5 9.5 0 0 1 0 19zm.055-1.335a8.11 8.11 0 1 0 0-16.22 8.11 8.11 0 0 0 0 16.22z" id="a"/></defs><g fill="none" fill-rule="evenodd"><mask id="b" fill="#fff"><use xlink:href="#a"/></mask><use fill="#2d60e5" fill-rule="nonzero" xlink:href="#a"/><g mask="url(#b)" fill="#3c6df0"><path d="M-3.276-3.931h25v25h-25z"/></g></g></svg>
